X:3157
T:Coilsfield House
S:Charlie Menzies
R:Slow air
O:Scotland
M:C
C:Nathaniel Gow
K:G
G/A/|\
{GA}BD {DEF}GB, G,3 A/B/|c>A BG F<A D>c|\
{d}c/B/A/G/ G/F/E/D/ G2 EC|B,G A,F {F}GG, G,:|
B/c/|\
{Bc}d>B dB {cd}e2 AB/c/|\
{Bc}dG FG A/G/F/E/ DB/c/|
{Bc}d>e dB c/4d/4e3/2 e/4f/4g3/2|\
f/g/a/g/ f/d/e/f/ g2 Gg/a/|\
{ga}bg dB c/4d/4e3/2 AB/c/|
dG FG A/G/F/E/ D{B}c|\
BG DB, CD/E/ A,D/C/|B,G A,F {F}GG, G,||


